X: 224
T:Cook in the Kitchen, The
N: page 74
N: heptatonic
R:jig
M:6/8
E:10
I:speed 350
K:G
G|"G" DGG GAG|"F"FDE=F3|"G"DGG GFG|"D"Add cAG|\
"G"DGG GAG|"F"FDE=F2d|"C"cAG "D"FGA|"G"BGG G2:|
A|"G"~B3 BAG|"D"ABA AGF|"C"~G3 FGG|"D"Add cAG|\
"G"~B3 BAG|"D"ABA ABc|"C"dcA "D"AGF|AGF "G" G2:|
B|"D"d2e f2g|a2g fed|"C"cAG "D"FGA|"G"BGB AFD|\
"D"d2e f2g|a2g fed|"C"cAG "D"FGA|"G"BGG G2:|
